src/assets/media/svg/sprite/documents.svg

<svg width="24" height="24" viewBox="0 0 24 24"  xmlns="http://www.w3.org/2000/svg">
<path d="M16.5 1.38749V5.24999H20.3625L16.5 1.38749ZM11.25 8.99999H15.1125L11.25 5.13749V8.99999Z" />
<path d="M9.75 4.5H3V23.25H15.75V10.5H9.75V4.5Z" />
<path d="M15 6.75V0.75H8.25V3H10.6125C11.0082 3.00564 11.3856 3.16738 11.6625 3.45L12.3 4.0875L16.1625 7.95L16.8 8.5875C17.0826 8.86445 17.2444 9.24185 17.25 9.6375V19.5H21V6.75H15Z" />
</svg>

<svg xmlns="http://www.w3.org/2000/svg" width="24" height="24"><path d="M16.5 1.387V5.25h3.863zM11.25 9h3.863L11.25 5.137z"/><path d="M9.75 4.5H3v18.75h12.75V10.5h-6z"/><path d="M15 6.75v-6H8.25V3h2.363a1.5 1.5 0 0 1 1.05.45l.637.638 3.863 3.862.637.638a1.5 1.5 0 0 1 .45 1.05V19.5H21V6.75z"/></svg>
